<?xml version="1.0" encoding="UTF-8"?>
<map version="1.10" tiledversion="1.12.2" orientation="orthogonal" renderorder="right-down" width="7" height="8" tilewidth="16" tileheight="16" infinite="0" nextlayerid="7" nextobjectid="24">
 <tileset firstgid="1" name="monotiles" tilewidth="16" tileheight="16" tilecount="24" columns="8">
  <image source="monotiles.png" width="128" height="48"/>
 </tileset>
 <tileset firstgid="25" name="sprites2" tilewidth="16" tileheight="16" tilecount="8" columns="4">
  <image source="sprites2.png" width="64" height="32"/>
 </tileset>
 <tileset firstgid="33" name="extras" tilewidth="16" tileheight="16" tilecount="8" columns="4">
  <image source="extras.png" width="64" height="32"/>
 </tileset>
 <layer id="1" name="map" width="7" height="8">
  <data encoding="csv">
0,15,15,15,15,15,15,
0,15,0,0,0,0,15,
0,15,18,15,0,15,15,
15,15,18,15,0,15,15,
13,17,0,0,21,15,0,
15,15,0,15,0,15,15,
0,15,15,15,0,0,15,
0,0,0,15,15,15,15
</data>
 </layer>
 <objectgroup id="6" name="mobs" class="spell">
  <object id="6" type="wizzard" gid="26" x="80" y="112" width="16" height="16">
   <properties>
    <property name="dir" type="int" value="1"/>
   </properties>
  </object>
  <object id="22" type="archer" gid="29" x="64" y="32" width="16" height="16">
   <properties>
    <property name="dir" type="int" value="2"/>
   </properties>
  </object>
  <object id="23" type="archer" gid="29" x="32" y="80" width="16" height="16">
   <properties>
    <property name="dir" type="int" value="1"/>
   </properties>
  </object>
 </objectgroup>
</map>
