<?xml version="1.0" encoding="UTF-8"?>
<map version="1.10" tiledversion="1.12.2" orientation="orthogonal" renderorder="right-down" width="8" height="8" tilewidth="16" tileheight="16" infinite="0" nextlayerid="7" nextobjectid="19">
 <tileset firstgid="1" name="monotiles" tilewidth="16" tileheight="16" tilecount="40" columns="8">
  <image source="monotiles.png" width="128" height="80"/>
 </tileset>
 <tileset firstgid="41" name="sprites2" tilewidth="16" tileheight="16" tilecount="8" columns="4">
  <image source="sprites2.png" width="64" height="32"/>
 </tileset>
 <tileset firstgid="49" name="extras" tilewidth="16" tileheight="16" tilecount="8" columns="4">
  <image source="extras.png" width="64" height="32"/>
 </tileset>
 <layer id="1" name="map" width="8" height="8">
  <data encoding="csv">
15,15,15,15,15,15,15,0,
15,0,0,0,0,0,15,0,
15,15,15,0,15,15,15,0,
0,0,15,0,15,0,0,0,
0,0,15,17,15,0,0,0,
0,0,15,13,15,0,0,0,
0,0,15,15,15,0,0,0,
0,0,0,0,0,0,0,0
</data>
 </layer>
 <objectgroup id="6" name="mobs">
  <object id="6" type="wizzard" gid="42" x="16" y="32" width="16" height="16">
   <properties>
    <property name="dir" type="int" value="1"/>
   </properties>
  </object>
  <object id="16" type="slime" gid="41" x="48" y="64" width="16" height="16">
   <properties>
    <property name="dir" type="int" value="0"/>
   </properties>
  </object>
  <object id="18" type="powerup" gid="53" x="80" y="32" width="16" height="16">
   <properties>
    <property name="dir" type="int" value="1"/>
   </properties>
  </object>
 </objectgroup>
</map>
